X: 45
T:Scottiche Nrondaise
O:France
A:Massif Central
M:2/4
L:1/4
Q:1/4=160
K:G
DG/2A/2 B2|cB/2A/2 d2|d/2B/2G/2B/2 BA|c/2A/2F/2A/2 AG|
DG/2A/2 B2|cB/2A/2 d2|d/2B/2G/2B/2 BA|c/2A/2F/2A/2 G2:|
|:d/2c/2B/2c/2 de|Ae d2|dc/2B/2 cA|d/2c/2B/2A/2 BG|
d/2c/2B/2c/2 de|Ae d2|dc/2B/2 cA|d/2c/2B/2A/2 G2:||
